X: 15133
T: Giga
R: jig
M: 6/8
K: Dmajor
|:a/g/|fed edc|cdd def|gfg bag|
faf dAd|fdf ece|e2a/a/ a2a|
[1efe dcB|B/c/A A3:|2 eee e^df|e3 e2f/g/||
agf fed|g2b bab|g2e ece|faa aaa|
faa gbb|faa gbb|faa eaa|1 d3 dz/e/f/g/:|2 d3 d2||

